!!!!SEGMENT: pl-sa--552-a-ix-32--022_anonim--walc-kalikbadzki.krn
!!!cenid: 18xx:533
!!!COM: Anonim
!!!COM-rismID: pe30004985
!!!CDT:
!!!CNT:
!!!OTL: Walc Kalikbadzki
!!!PDT:
!!!AGN: Secular; Waltz
!!!SMS-siglum: PL-SA
!!!SMS-shelfmark: 552/A IX 32
!!!SMS-shelfwork: 022 W
!!!SMS-variant:
!!!SMS-altvar:
!!!NIFC-rismSourceID: 1001069540
!!!NIFC-islandoraID:
!!!URL-pdf-islandora:
!!!URL-scan: https://bc.bdsandomierz.pl/dlibra/publication/1308/edition/1276/content @EN{Scan in the Sandomierz Diocese Digital Library} @PL{Skany w portalu Cyfrowa Biblioteka Diecezjalna w Sandomierzu}
!!!ONB-nifc: Str. 12, s. 6
!!!AIN: 2 empty
!!!key:
**kern	**kern
*part2	*part1
*staff2	*staff1
*Iempty	*Iempty
*I"	*I"
*clefF4	*clefG2
*k[]	*k[]
*C:	*C:
*M3/4	*M3/4
*>[A,B,B,C,A,B,B,C,D,D]	*>[A,B,B,C,A,B,B,C,D,D]
*>A	*>A
!LO:TX:a:t=P:problem=omyłkowo wpisany klucz F3	!
!LO:TX:a:t=P:problem=jedno metrum	!LO:TX:a:i:t=Walc Kalikbadzki
8ryy	8gg\L
4r	8ff#X\
.	8gg\J
=1!|:	=1!|:
*>B	*>B
4C/	4.ee\
4C/	.
.	8gg\L
4r	8ff#X\
.	8gg\J
=2:|!	=2:|!
*>C	*>C
4C/	4ccc\
4C/	4gg\
4r	4gg\
=3	=3
4CC/	4gg\
4C/	8ff#X\L
.	8gg\
4r	8aa\
.	8gg\J
=4	=4
2GG/	4.gg\
.	8ff#X\L
4G\	8ff#\
.	8gg\J
=5	=5
4C/	4ff\
4CC/	4ee\
4C/	4ee\
=6	=6
2GG/	8dd\L
.	8gg\
.	8ff#X\
.	8gg\
4G\	8ffn\
.	8dd\J
=7	=7
!	!LO:N:vis=4.
4C/	4cc\
!LO:N:vis=4.	!LO:N:vis=4.
4r	4r
=:|!|:	=:|!|:
*>D	*>D
*	*clefG2
4r	8g\L
.	8cc\J
=8	=8
2CC/	4ee\
.	4ee\
4C/	4ee\
=9	=9
!LO:N:vis=4	!
2CC/	4aa\
.	4gg\
4C/	4ee\
=10	=10
4GG/	4gg\
4G\	4ff\
4GG/	4bb\
=11	=11
4C/	4ccc\
4C/	8bb\L
.	8aa\
4r	8gg\
.	8ff\J
=12	=12
2CC/	4ee\
.	4ee\
4C/	4ff\
=13	=13
2CC/	4bb\
.	4aa\
4C/	4ee\
=14	=14
4GG/	4gg\
4G\	4ff\
4GG/	4bb\
=15	=15
2CC/	4ccc\
.	4r
4r	4ryy
==:|!;;	==:|!;;
*-	*-
!!!system-decoration: {s1,s2}
!!!ENC: Marta Lawrence
!!!END: 2020-12-12
!!!ENC: Andrzej Borzym
!!!END: 2020-06-18
!!!YEC: Copyright 2022 Narodowy Instytut Fryderyka Chopina (https://polishscores.org)
!!!YEM: Licence CC BY 4.0 (https://creativecommons.org/licenses/by/4.0)
